!!!COM: Fux, Johann Joseph
!!!OMD: Gradus ad Parnassum Exercise
!!!YEC: CC0 1.0 Universal (Public Domain). Mark Gotham and FourScoreAndMore.org waive all rights to this document.
**kern	**kern	**kern
*part3	*part2	*part1
*staff3	*staff2	*staff1
*I"3	*I"2	*I"1
*I'Pno	*I'Pno	*I'Pno
!!LO:LB:g=z
*clefF4	*clefG2	*clefG2
*k[]	*k[]	*k[]
!!LO:TX:omd:t=
*M4/4	*M4/4	*M4/4
=384	=384	=384
!	!	!LO:TX:a:t=Fig. 148; Species&colon; 4; Modal final&colon; e; Cantus firmus&colon; 2
2r	1e	1g
[2E\	.	.
=385	=385	=385
2E\]	1c	1g
[2C/	.	.
=386	=386	=386
2C/]	1d	1g
[2BB/	.	.
=387	=387	=387
2BB/]	1c	1e
[2AA/	.	.
=388	=388	=388
2AA/]	1A	1cc
[2F\	.	.
=389	=389	=389
2F\]	1a	1dd
[2D\	.	.
=390	=390	=390
2D\]	1g	1ee
[2C/	.	.
=391	=391	=391
2C/]	1e	1cc
[2E\	.	.
=392	=392	=392
2E\]	1f	1a
2D\	.	.
=393	=393	=393
1E	1e	1g#X
==	==	==
*-	*-	*-
!!!software: music21 v.9.7.1
!!!software: music21 v.9.7.1
!!!software: MuseScore 3.4.2
!!!RDF**kern: > = above
!!!RDF**kern: < = below
